X:1
T:Morrison's Jig
T:Stick Across the Hob, The
T:Maurice Carmody' Favorite
M:6/8
L:1/8
S:James Morrison tape set from Viva Voce (Harry Bradshaw)
R:Jig
Z:Philippe Varlet  irtrad-l 2001-01-31
K:EDor
| ~E3 BGB | EBE AFD | ~E3 ({d}BAB) | dcB AFD \
| ~E3 BGB | EBE AFD | GBG FAB | dAG FED :|
| Bee {a}fee | {b}aee {a}fed | Bee {a}fee | a/b/ag fed \
| Bee {a}fee | {b}aee {a}fed | g/g/fe d2A | {d}BAG FED |
| Bee {a}fee | {b}aee {a}fed | Bee {a}fee | (f/g/af) def \
| g2(g {a}g)fe | def ~g3 | edc d2A | {d}BAG FED |]
